static/img/in-field/sliders-dark.svg

<svg fill="none" height="162" viewBox="0 0 1087 162" width="1087" xmlns="http://www.w3.org/2000/svg"><path d="m0 0h1087v162h-1087z" fill="#353a40"/><path d="m217.159 60v-15.7051h1.826v14.0508h6.929v1.6543zm18.182 0-.355-1.6758h-.086c-.587.7376-1.174 1.239-1.762 1.5039-.58.2578-1.307.3867-2.18.3867-1.168 0-2.084-.3007-2.75-.9023-.659-.6016-.989-1.4574-.989-2.5674 0-2.3776 1.902-3.6237 5.705-3.7383l1.998-.0644v-.7305c0-.9238-.201-1.6042-.602-2.041-.394-.444-1.028-.666-1.901-.666-.981 0-2.091.3008-3.33.9023l-.548-1.3642c.58-.3151 1.214-.5622 1.901-.7412.695-.1791 1.389-.2686 2.084-.2686 1.404 0 2.442.3115 3.115.9346.681.623 1.021 1.622 1.021 2.997v8.0352zm-4.029-1.2568c1.11 0 1.98-.3044 2.611-.9131.637-.6087.956-1.461.956-2.5567v-1.0634l-1.784.0752c-1.418.0501-2.442.2721-3.072.666-.623.3867-.934.9918-.934 1.8154 0 .6445.193 1.1351.58 1.4717.394.3366.941.5049 1.643.5049zm14.293-10.71c1.547 0 2.746.53 3.599 1.5898.859 1.0528 1.289 2.5459 1.289 4.4795s-.434 3.4375-1.3 4.5118c-.86 1.067-2.056 1.6005-3.588 1.6005-.766 0-1.468-.1396-2.106-.4189-.63-.2865-1.16-.7233-1.589-1.3105h-.129l-.376 1.5146h-1.279v-16.7148h1.784v4.0605c0 .9095-.029 1.7259-.086 2.4492h.086c.83-1.1745 2.062-1.7617 3.695-1.7617zm-.258 1.4932c-1.217 0-2.095.3509-2.632 1.0527-.537.6947-.805 1.8691-.805 3.5234s.275 2.8396.827 3.5557c.551.709 1.436 1.0635 2.653 1.0635 1.096 0 1.912-.3975 2.449-1.1924.537-.8021.806-1.9515.806-3.4482 0-1.5326-.269-2.6749-.806-3.4268-.537-.752-1.368-1.1279-2.492-1.1279zm13.025 10.6884c-1.74 0-3.115-.5299-4.125-1.5898-1.002-1.0599-1.504-2.5316-1.504-4.415 0-1.8978.466-3.4053 1.397-4.5225.938-1.1172 2.195-1.6758 3.77-1.6758 1.476 0 2.643.487 3.502 1.461.86.9668 1.289 2.2451 1.289 3.8349v1.1279h-8.11c.036 1.3822.383 2.4314 1.042 3.1475.666.7162 1.601 1.0742 2.804 1.0742 1.267 0 2.521-.2649 3.759-.7949v1.5898c-.63.2722-1.228.4655-1.793.5801-.559.1218-1.236.1826-2.031.1826zm-.483-10.7099c-.945 0-1.701.3079-2.267.9238-.558.6159-.888 1.4681-.988 2.5567h6.155c0-1.1244-.25-1.9838-.752-2.5782-.501-.6015-1.217-.9023-2.148-.9023zm9.426 10.4951h-1.783v-16.7148h1.783z" fill="#fff"/><rect fill="#a3a6b1" height="16" rx="8" width="457" x="215" y="88"/><rect fill="#019aeb" height="16" rx="8" width="240" x="215" y="88"/><circle cx="435" cy="96" fill="#fff" r="19" stroke="#004f83" stroke-width="2"/><path d="m705.235 105h-3.319v-9.0879l.032-1.4932.054-1.6328c-.551.5515-.935.9131-1.149 1.085l-1.805 1.4502-1.601-1.9981 5.06-4.0283h2.728zm15.254-7.8525c0 2.7428-.451 4.7735-1.353 6.0905-.895 1.318-2.278 1.977-4.147 1.977-1.812 0-3.179-.68-4.103-2.041-.917-1.361-1.375-3.3696-1.375-6.0265 0-2.7715.447-4.8125 1.343-6.1231.895-1.3177 2.273-1.9765 4.135-1.9765 1.812 0 3.18.6875 4.104 2.0625.931 1.375 1.396 3.3873 1.396 6.0371zm-7.68 0c0 1.9264.164 3.3085.494 4.1465.336.831.898 1.246 1.686 1.246.774 0 1.332-.422 1.676-1.268.344-.845.516-2.2196.516-4.1245 0-1.9265-.176-3.3086-.527-4.1465-.343-.8451-.898-1.2676-1.665-1.2676-.78 0-1.339.4225-1.676 1.2676-.336.8379-.504 2.22-.504 4.1465zm20.249 0c0 2.7428-.452 4.7735-1.354 6.0905-.895 1.318-2.277 1.977-4.146 1.977-1.812 0-3.18-.68-4.104-2.041-.917-1.361-1.375-3.3696-1.375-6.0265 0-2.7715.448-4.8125 1.343-6.1231.895-1.3177 2.274-1.9765 4.136-1.9765 1.811 0 3.179.6875 4.103 2.0625.931 1.375 1.397 3.3873 1.397 6.0371zm-7.681 0c0 1.9264.165 3.3085.494 4.1465.337.831.899 1.246 1.687 1.246.773 0 1.332-.422 1.675-1.268.344-.845.516-2.2196.516-4.1245 0-1.9265-.175-3.3086-.526-4.1465-.344-.8451-.899-1.2676-1.665-1.2676-.781 0-1.34.4225-1.676 1.2676-.337.8379-.505 2.22-.505 4.1465z" fill="#fff"/><rect fill="#6a6e79" height="56" rx="4" width="56" x="752" y="68"/><path d="m790.867 82.7333-21.734 13.2 21.667 13.3337z" fill="#fff"/><rect fill="#6a6e79" height="56" rx="4" width="56" x="816" y="68"/><g fill="#fff"><path d="m833.133 109.267 21.734-13.2003-21.667-13.3334z"/><circle cx="435" cy="96" r="19" stroke="#0e416c" stroke-width="2"/></g></svg>

<svg width="1087" height="162" viewBox="0 0 1087 162" fill="none" xmlns="http://www.w3.org/2000/svg">
<rect width="1087" height="162" fill="#353A40"/>
<path d="M217.159 60V44.2949H218.985V58.3457H225.914V60H217.159ZM235.341 60L234.986 58.3242H234.9C234.313 59.0618 233.726 59.5632 233.138 59.8281C232.558 60.0859 231.831 60.2148 230.958 60.2148C229.79 60.2148 228.874 59.9141 228.208 59.3125C227.549 58.7109 227.219 57.8551 227.219 56.7451C227.219 54.3675 229.121 53.1214 232.924 53.0068L234.922 52.9424V52.2119C234.922 51.2881 234.721 50.6077 234.32 50.1709C233.926 49.7269 233.292 49.5049 232.419 49.5049C231.438 49.5049 230.328 49.8057 229.089 50.4072L228.541 49.043C229.121 48.7279 229.755 48.4808 230.442 48.3018C231.137 48.1227 231.831 48.0332 232.526 48.0332C233.93 48.0332 234.968 48.3447 235.641 48.9678C236.322 49.5908 236.662 50.5898 236.662 51.9648V60H235.341ZM231.312 58.7432C232.422 58.7432 233.292 58.4388 233.923 57.8301C234.56 57.2214 234.879 56.3691 234.879 55.2734V54.21L233.095 54.2852C231.677 54.3353 230.653 54.5573 230.023 54.9512C229.4 55.3379 229.089 55.943 229.089 56.7666C229.089 57.4111 229.282 57.9017 229.669 58.2383C230.063 58.5749 230.61 58.7432 231.312 58.7432ZM245.605 48.0332C247.152 48.0332 248.351 48.5632 249.204 49.623C250.063 50.6758 250.493 52.1689 250.493 54.1025C250.493 56.0361 250.059 57.54 249.193 58.6143C248.333 59.6813 247.137 60.2148 245.605 60.2148C244.839 60.2148 244.137 60.0752 243.499 59.7959C242.869 59.5094 242.339 59.0726 241.91 58.4854H241.781L241.405 60H240.126V43.2852H241.91V47.3457C241.91 48.2552 241.881 49.0716 241.824 49.7949H241.91C242.74 48.6204 243.972 48.0332 245.605 48.0332ZM245.347 49.5264C244.13 49.5264 243.252 49.8773 242.715 50.5791C242.178 51.2738 241.91 52.4482 241.91 54.1025C241.91 55.7568 242.185 56.9421 242.737 57.6582C243.288 58.3672 244.173 58.7217 245.39 58.7217C246.486 58.7217 247.302 58.3242 247.839 57.5293C248.376 56.7272 248.645 55.5778 248.645 54.0811C248.645 52.5485 248.376 51.4062 247.839 50.6543C247.302 49.9023 246.471 49.5264 245.347 49.5264ZM258.372 60.2148C256.632 60.2148 255.257 59.6849 254.247 58.625C253.245 57.5651 252.743 56.0934 252.743 54.21C252.743 52.3122 253.209 50.8047 254.14 49.6875C255.078 48.5703 256.335 48.0117 257.91 48.0117C259.386 48.0117 260.553 48.4987 261.412 49.4727C262.272 50.4395 262.701 51.7178 262.701 53.3076V54.4355H254.591C254.627 55.8177 254.974 56.8669 255.633 57.583C256.299 58.2992 257.234 58.6572 258.437 58.6572C259.704 58.6572 260.958 58.3923 262.196 57.8623V59.4521C261.566 59.7243 260.968 59.9176 260.403 60.0322C259.844 60.154 259.167 60.2148 258.372 60.2148ZM257.889 49.5049C256.944 49.5049 256.188 49.8128 255.622 50.4287C255.064 51.0446 254.734 51.8968 254.634 52.9854H260.789C260.789 51.861 260.539 51.0016 260.037 50.4072C259.536 49.8057 258.82 49.5049 257.889 49.5049ZM267.315 60H265.532V43.2852H267.315V60Z" fill="#fff"/>
<rect x="215" y="88" width="457" height="16" rx="8" fill="#A3A6B1"/>
<rect x="215" y="88" width="240" height="16" rx="8" fill="#019AEB"/>
<circle cx="435" cy="96" r="19" fill="#fff" stroke="#004F83" stroke-width="2"/>
<path d="M705.235 105H701.916V95.9121L701.948 94.4189L702.002 92.7861C701.451 93.3376 701.067 93.6992 700.853 93.8711L699.048 95.3213L697.447 93.3232L702.507 89.2949H705.235V105ZM720.489 97.1475C720.489 99.8903 720.038 101.921 719.136 103.238C718.241 104.556 716.858 105.215 714.989 105.215C713.177 105.215 711.81 104.535 710.886 103.174C709.969 101.813 709.511 99.8044 709.511 97.1475C709.511 94.376 709.958 92.335 710.854 91.0244C711.749 89.7067 713.127 89.0479 714.989 89.0479C716.801 89.0479 718.169 89.7354 719.093 91.1104C720.024 92.4854 720.489 94.4977 720.489 97.1475ZM712.809 97.1475C712.809 99.0739 712.973 100.456 713.303 101.294C713.639 102.125 714.201 102.54 714.989 102.54C715.763 102.54 716.321 102.118 716.665 101.272C717.009 100.427 717.181 99.0524 717.181 97.1475C717.181 95.221 717.005 93.8389 716.654 93.001C716.311 92.1559 715.756 91.7334 714.989 91.7334C714.209 91.7334 713.65 92.1559 713.313 93.001C712.977 93.8389 712.809 95.221 712.809 97.1475ZM733.058 97.1475C733.058 99.8903 732.606 101.921 731.704 103.238C730.809 104.556 729.427 105.215 727.558 105.215C725.746 105.215 724.378 104.535 723.454 103.174C722.537 101.813 722.079 99.8044 722.079 97.1475C722.079 94.376 722.527 92.335 723.422 91.0244C724.317 89.7067 725.696 89.0479 727.558 89.0479C729.369 89.0479 730.737 89.7354 731.661 91.1104C732.592 92.4854 733.058 94.4977 733.058 97.1475ZM725.377 97.1475C725.377 99.0739 725.542 100.456 725.871 101.294C726.208 102.125 726.77 102.54 727.558 102.54C728.331 102.54 728.89 102.118 729.233 101.272C729.577 100.427 729.749 99.0524 729.749 97.1475C729.749 95.221 729.574 93.8389 729.223 93.001C728.879 92.1559 728.324 91.7334 727.558 91.7334C726.777 91.7334 726.218 92.1559 725.882 93.001C725.545 93.8389 725.377 95.221 725.377 97.1475Z" fill="#fff"/>
<rect x="752" y="68" width="56" height="56" rx="4" fill="#6A6E79"/>
<path d="M790.867 82.7333L769.133 95.9333L790.8 109.267L790.867 82.7333Z" fill="#fff"/>
<rect x="816" y="68" width="56" height="56" rx="4" fill="#6A6E79"/>
<path d="M833.133 109.267L854.867 96.0667L833.2 82.7333L833.133 109.267Z" fill="#fff"/>
<circle cx="435" cy="96" r="19" fill="#fff" stroke="#0E416C" stroke-width="2"/>
</svg>
